X:196
T:The Moth in the Lantern
Z:robin.beech@mcgill.ca
R:jig
S:Kevin Burke: Open House
M:7/8
L:1/8
K:Amin
|: EAc eA eA | EAc dA dA | EAc eA eA | dcd ef de |
EAc eA eA | EAc dA dA | edc de fg | ecB A2 A2 ::
EAc BA BA | cBc de dA | EAc BA BA | cBA _BA GA |
EAc BA BA | cBc dB cd | edc de fg | ecA A2 A2 ::
ecA cA cA | dBG Bc df | ecA cA cA | def de fg |
ecA cA cA | dBG Bc df | edc de  fg | ecA A2 A2 :|
